svgs/thin/school-lock.svg

<svg xmlns="http://www.w3.org/2000/svg" viewBox="0 0 640 512"><!--! Font Awesome Pro 6.6.0 by @fontawesome - https://fontawesome.com License - https://fontawesome.com/license (Commercial License) Copyright 2024 Fonticons, Inc. --><path d="M324.6 1.4c-2.8-1.9-6.4-1.9-9.2 0L157.5 112 56 112c-30.9 0-56 25.1-56 56L0 456c0 30.9 25.1 56 56 56l200 0 16 0 96 0 16 0 8.6 0c-2.9-5-5.1-10.3-6.5-16l-2 0 0-16 0-96c0-35.3-28.7-64-64-64s-64 28.7-64 64l0 112L56 496c-22.1 0-40-17.9-40-40l0-288c0-22.1 17.9-40 40-40l104 0c1.6 0 3.2-.5 4.6-1.4L320 17.8 475.4 126.6c1.3 .9 2.9 1.4 4.6 1.4l104 0c22.1 0 40 17.9 40 40l0 88 0 34c5.7 1.5 11 3.7 16 6.5L640 168c0-30.9-25.1-56-56-56l-101.5 0L324.6 1.4zM368 496l-96 0 0-112c0-26.5 21.5-48 48-48s48 21.5 48 48l0 112zM64 216l0 48c0 13.3 10.7 24 24 24l32 0c13.3 0 24-10.7 24-24l0-48c0-13.3-10.7-24-24-24l-32 0c-13.3 0-24 10.7-24 24zm24-8l32 0c4.4 0 8 3.6 8 8l0 48c0 4.4-3.6 8-8 8l-32 0c-4.4 0-8-3.6-8-8l0-48c0-4.4 3.6-8 8-8zm232-96a64 64 0 1 1 0 128 64 64 0 1 1 0-128zm0 144a80 80 0 1 0 0-160 80 80 0 1 0 0 160zm8-112c0-4.4-3.6-8-8-8s-8 3.6-8 8l0 32c0 4.4 3.6 8 8 8l24 0c4.4 0 8-3.6 8-8s-3.6-8-8-8l-16 0 0-24zM64 344l0 48c0 13.3 10.7 24 24 24l32 0c13.3 0 24-10.7 24-24l0-48c0-13.3-10.7-24-24-24l-32 0c-13.3 0-24 10.7-24 24zm24-8l32 0c4.4 0 8 3.6 8 8l0 48c0 4.4-3.6 8-8 8l-32 0c-4.4 0-8-3.6-8-8l0-48c0-4.4 3.6-8 8-8zM528 208c26.5 0 48 21.5 48 48l0 64-96 0 0-64c0-26.5 21.5-48 48-48zm-64 48l0 64-16 0c-17.7 0-32 14.3-32 32l0 128c0 17.7 14.3 32 32 32l160 0c17.7 0 32-14.3 32-32l0-128c0-17.7-14.3-32-32-32l-16 0 0-64c0-35.3-28.7-64-64-64s-64 28.7-64 64zm-16 80l16 0 16 0 96 0 16 0 16 0c8.8 0 16 7.2 16 16l0 128c0 8.8-7.2 16-16 16l-160 0c-8.8 0-16-7.2-16-16l0-128c0-8.8 7.2-16 16-16z"/></svg>

<svg xmlns="http://www.w3.org/2000/svg" viewBox="0 0 640 512"><!--! Font Awesome Pro 6.5.2 by @fontawesome - https://fontawesome.com License - https://fontawesome.com/license (Commercial License) Copyright 2024 Fonticons, Inc. --><path d="M324.6 1.4c-2.8-1.9-6.4-1.9-9.2 0L157.5 112H56c-30.9 0-56 25.1-56 56V456c0 30.9 25.1 56 56 56H256h16 96 16 8.6c-2.9-5-5.1-10.3-6.5-16h-2V480 384c0-35.3-28.7-64-64-64s-64 28.7-64 64V496H56c-22.1 0-40-17.9-40-40V168c0-22.1 17.9-40 40-40H160c1.6 0 3.2-.5 4.6-1.4L320 17.8 475.4 126.6c1.3 .9 2.9 1.4 4.6 1.4H584c22.1 0 40 17.9 40 40v88 34c5.7 1.5 11 3.7 16 6.5V168c0-30.9-25.1-56-56-56H482.5L324.6 1.4zM368 496H272V384c0-26.5 21.5-48 48-48s48 21.5 48 48V496zM64 216v48c0 13.3 10.7 24 24 24h32c13.3 0 24-10.7 24-24V216c0-13.3-10.7-24-24-24H88c-13.3 0-24 10.7-24 24zm24-8h32c4.4 0 8 3.6 8 8v48c0 4.4-3.6 8-8 8H88c-4.4 0-8-3.6-8-8V216c0-4.4 3.6-8 8-8zm232-96a64 64 0 1 1 0 128 64 64 0 1 1 0-128zm0 144a80 80 0 1 0 0-160 80 80 0 1 0 0 160zm8-112c0-4.4-3.6-8-8-8s-8 3.6-8 8v32c0 4.4 3.6 8 8 8h24c4.4 0 8-3.6 8-8s-3.6-8-8-8H328V144zM64 344v48c0 13.3 10.7 24 24 24h32c13.3 0 24-10.7 24-24V344c0-13.3-10.7-24-24-24H88c-13.3 0-24 10.7-24 24zm24-8h32c4.4 0 8 3.6 8 8v48c0 4.4-3.6 8-8 8H88c-4.4 0-8-3.6-8-8V344c0-4.4 3.6-8 8-8zM528 208c26.5 0 48 21.5 48 48v64H480V256c0-26.5 21.5-48 48-48zm-64 48v64H448c-17.7 0-32 14.3-32 32V480c0 17.7 14.3 32 32 32H608c17.7 0 32-14.3 32-32V352c0-17.7-14.3-32-32-32H592V256c0-35.3-28.7-64-64-64s-64 28.7-64 64zm-16 80h16 16 96 16 16c8.8 0 16 7.2 16 16V480c0 8.8-7.2 16-16 16H448c-8.8 0-16-7.2-16-16V352c0-8.8 7.2-16 16-16z"/></svg>
